Newaita-dark/apps/16/transmission.svg

<svg height="16" viewBox="0 0 16 16" width="16" xmlns="http://www.w3.org/2000/svg" xmlns:xlink="http://www.w3.org/1999/xlink"><linearGradient id="a" gradientTransform="matrix(0 .031253 -.031253 0 9.364827 15.670766)" gradientUnits="userSpaceOnUse" x1="-349.249969" x2="-433.916626" y1="87.979172" y2="87.979172"><stop offset="0" stop-color="#f44336"/><stop offset="1" stop-color="#ef5350"/></linearGradient><linearGradient id="b"><stop offset="0" stop-opacity=".313726"/><stop offset=".222222" stop-opacity=".27451"/><stop offset="1" stop-opacity="0"/></linearGradient><radialGradient id="c" cx="450.908936" cy="189.579361" gradientTransform="matrix(.00000006 -.0390662 -.0468795 -.00000005 16.825615 31.963045)" gradientUnits="userSpaceOnUse" r="21.166656" xlink:href="#b"/><radialGradient id="d" cx="450.908936" cy="189.579361" gradientTransform="matrix(-.00000006 .0390662 .0468795 .00000005 -.949098 -3.598361)" gradientUnits="userSpaceOnUse" r="21.166656" xlink:href="#b"/><radialGradient id="e" cx="450.908936" cy="189.579361" gradientTransform="matrix(-.00000006 -.0390662 .0468795 -.00000005 -.949098 31.963045)" gradientUnits="userSpaceOnUse" r="21.166656" xlink:href="#b"/><radialGradient id="f" cx="450.908936" cy="189.579361" gradientTransform="matrix(.00000006 .0390662 -.0468795 .00000005 16.825615 -3.598361)" gradientUnits="userSpaceOnUse" r="21.166656" xlink:href="#b"/><linearGradient id="g" gradientTransform="matrix(.00445335 0 0 .031253 6.801214 6.884772)" gradientUnits="userSpaceOnUse" x1="255.323059" x2="255.323044" y1="233.5" y2="254.666656"><stop offset="0" stop-opacity=".27451"/><stop offset="1" stop-opacity="0"/></linearGradient><linearGradient id="h" gradientUnits="userSpaceOnUse" x1="7.938262" x2="7.938262" y1="14.0169675" y2="2.1095745"><stop offset="0" stop-color="#bdbdbd"/><stop offset="1" stop-color="#e0e0e0"/></linearGradient><path d="m13.890625 3.761719c0 .550781-.441406.992187-.992187.992187h-9.921876c-.546874 0-.992187-.441406-.992187-.992187 0-.546875.445313-.992188.992187-.992188h9.921876c.550781 0 .992187.445313.992187.992188zm0 0" fill="url(#a)"/><path d="m8.046875 14.183594h.882813v-.664063h-.882813zm0 0" fill="url(#c)"/><path d="m7.828125 14.183594h-.882813v.660156h.882813zm0 0" fill="url(#d)"/><path d="m7.828125 14.183594h-.882813v-.664063h.882813zm0 0" fill="url(#e)"/><path d="m8.046875 14.183594h.882813v.660156h-.882813zm0 0" fill="url(#f)"/><path d="m7.828125 14.015625h.21875v.828125h-.21875zm0 0" fill="url(#g)"/><path d="m2.976562 2.769531c-.550781 0-.992187.445313-.992187.992188 0 .046875.003906.089843.007813.128906.0625-.488281.480468-.863281.984374-.863281h9.921876c.507812 0 .921874.375.984374.863281.007813-.039063.007813-.082031.007813-.128906 0-.546875-.441406-.992188-.992187-.992188zm0 0" fill="#fff" fill-opacity=".392157"/><path d="m2.976562 4.75c-.550781 0-.992187-.441406-.992187-.992188 0-.042968.003906-.085937.007813-.128906.0625.488282.480468.863282.984374.863282h9.921876c.507812 0 .921874-.375.984374-.863282.007813.042969.007813.085938.007813.128906 0 .550782-.441406.992188-.992187.992188zm0 0" fill-opacity=".235294"/><path d="m-94.636494-444.457556c17.623317 0 31.746968 14.123651 31.746968 31.746968v317.469683c0 17.498329-14.123651 31.746968-31.746968 31.746968-17.498329 0-31.746968-14.248639-31.746968-31.746968v-317.469683c0-17.623317 14.248639-31.746968 31.746968-31.746968zm0 0" fill="none" stroke="#212121" stroke-linecap="square" stroke-linejoin="bevel" stroke-width="3" transform="matrix(0 .031253 -.031253 0 0 6.719392)"/><path d="m7.277344 2.121094c-.367188 0-.664063.292968-.664063.660156v7.316406l-3.046875-1.304687c-.082031-.035157-.167968-.054688-.253906-.054688-.613281-.003906-.898438.757813-.433594 1.15625l4.632813 3.972657c.246093.210937.609375.210937.855469 0l4.628906-3.972657c.246094-.210937.304687-.570312.132812-.84375-.171875-.277343-.519531-.386719-.820312-.257812l-3.046875 1.304687v-7.316406c0-.367188-.296875-.660156-.660157-.660156zm0 0" fill="url(#h)"/><path d="m7.277344 2.121094c-.367188 0-.664063.292968-.664063.660156v.238281c0-.367187.296875-.660156.664063-.660156h1.324218c.363282 0 .660157.292969.660157.660156v-.238281c0-.367188-.296875-.660156-.660157-.660156zm5.289062 6.617187c-.085937 0-.171875.015625-.257812.054688l-3.046875 1.304687v.238282l3.046875-1.308594c.300781-.125.648437-.015625.820312.257812.042969.074219.074219.152344.085938.230469.03125-.15625.003906-.324219-.085938-.464844-.125-.199219-.339844-.3125-.5625-.3125zm-9.253906 0c-.449219 0-.722656.40625-.652344.78125.050782-.289062.296875-.542969.652344-.542969.085938 0 .171875.019532.253906.050782l3.046875 1.308594v-.238282l-3.046875-1.304687c-.082031-.035157-.167968-.054688-.253906-.054688zm0 0" fill="#fff" fill-opacity=".784314"/><path d="m13.214844 9.273438c-.027344.140624-.101563.273437-.21875.371093l-4.628906 3.972657c-.246094.210937-.609376.210937-.855469 0l-4.632813-3.972657c-.121094-.101562-.191406-.234375-.21875-.367187-.039062.214844.019532.449218.21875.617187l4.632813 3.972657c.246093.210937.609375.210937.855469 0l4.628906-3.972657c.183594-.15625.261718-.394531.21875-.621093zm0 0" fill-opacity=".235294"/><path d="m232.852764-147.131481c-11.748878 0-21.247971 9.374105-21.247971 21.122983v234.102644l-97.49069-41.746013c-2.62475-1.124893-5.374487-1.749833-8.124225-1.749833-19.623126-.124988-28.747254 24.247684-13.873675 36.996467l148.235845 127.112861c7.874248 6.749356 19.498138 6.749356 27.372386 0l148.110856-127.112861c7.874248-6.749356 9.749069-18.248258 4.249594-26.997422-5.499475-8.874153-16.623413-12.373819-26.247494-8.249212l-97.49069 41.746013v-234.102644c0-11.748878-9.499093-21.122983-21.122983-21.122983zm0 0" fill="none" stroke="#212121" stroke-linecap="round" stroke-linejoin="round" stroke-width="3" transform="matrix(.031253 0 0 .031253 0 6.719392)"/></svg>

<?xml version="1.0" encoding="UTF-8"?>
<svg xmlns="http://www.w3.org/2000/svg" xmlns:xlink="http://www.w3.org/1999/xlink" width="16px" height="16px" viewBox="0 0 16 16" version="1.1">
<defs>
<linearGradient id="linear0" gradientUnits="userSpaceOnUse" x1="-349.249969" y1="87.979172" x2="-433.916626" y2="87.979172" gradientTransform="matrix(0.000000000000000002,0.031253,-0.031253,0.000000000000000002,9.364827,15.670766)">
<stop offset="0" style="stop-color:rgb(95.686275%,26.274511%,21.176471%);stop-opacity:1;"/>
<stop offset="1" style="stop-color:rgb(93.725491%,32.549021%,31.37255%);stop-opacity:1;"/>
</linearGradient>
<radialGradient id="radial0" gradientUnits="userSpaceOnUse" cx="450.908936" cy="189.579361" fx="450.908936" fy="189.579361" r="21.166656" gradientTransform="matrix(0.0000000580568,-0.0390662,-0.0468795,-0.0000000507693,16.825615,31.963045)">
<stop offset="0" style="stop-color:rgb(0%,0%,0%);stop-opacity:0.313726;"/>
<stop offset="0.222222" style="stop-color:rgb(0%,0%,0%);stop-opacity:0.27451;"/>
<stop offset="1" style="stop-color:rgb(0%,0%,0%);stop-opacity:0;"/>
</radialGradient>
<radialGradient id="radial1" gradientUnits="userSpaceOnUse" cx="450.908936" cy="189.579361" fx="450.908936" fy="189.579361" r="21.166656" gradientTransform="matrix(-0.0000000580568,0.0390662,0.0468795,0.0000000507693,-0.949098,-3.598361)">
<stop offset="0" style="stop-color:rgb(0%,0%,0%);stop-opacity:0.313726;"/>
<stop offset="0.222222" style="stop-color:rgb(0%,0%,0%);stop-opacity:0.27451;"/>
<stop offset="1" style="stop-color:rgb(0%,0%,0%);stop-opacity:0;"/>
</radialGradient>
<radialGradient id="radial2" gradientUnits="userSpaceOnUse" cx="450.908936" cy="189.579361" fx="450.908936" fy="189.579361" r="21.166656" gradientTransform="matrix(-0.0000000580568,-0.0390662,0.0468795,-0.0000000507693,-0.949098,31.963045)">
<stop offset="0" style="stop-color:rgb(0%,0%,0%);stop-opacity:0.313726;"/>
<stop offset="0.222222" style="stop-color:rgb(0%,0%,0%);stop-opacity:0.27451;"/>
<stop offset="1" style="stop-color:rgb(0%,0%,0%);stop-opacity:0;"/>
</radialGradient>
<radialGradient id="radial3" gradientUnits="userSpaceOnUse" cx="450.908936" cy="189.579361" fx="450.908936" fy="189.579361" r="21.166656" gradientTransform="matrix(0.0000000580568,0.0390662,-0.0468795,0.0000000507693,16.825615,-3.598361)">
<stop offset="0" style="stop-color:rgb(0%,0%,0%);stop-opacity:0.313726;"/>
<stop offset="0.222222" style="stop-color:rgb(0%,0%,0%);stop-opacity:0.27451;"/>
<stop offset="1" style="stop-color:rgb(0%,0%,0%);stop-opacity:0;"/>
</radialGradient>
<linearGradient id="linear1" gradientUnits="userSpaceOnUse" x1="255.323059" y1="233.5" x2="255.323044" y2="254.666656" gradientTransform="matrix(0.00445335,0,0,0.031253,6.801214,6.884772)">
<stop offset="0" style="stop-color:rgb(0%,0%,0%);stop-opacity:0.27451;"/>
<stop offset="1" style="stop-color:rgb(0%,0%,0%);stop-opacity:0;"/>
</linearGradient>
<linearGradient id="linear2" gradientUnits="userSpaceOnUse" x1="254" y1="233.5" x2="254" y2="-147.5" gradientTransform="matrix(0.031253,0,0,0.031253,0,6.719392)">
<stop offset="0" style="stop-color:rgb(74.117649%,74.117649%,74.117649%);stop-opacity:1;"/>
<stop offset="1" style="stop-color:rgb(87.843138%,87.843138%,87.843138%);stop-opacity:1;"/>
</linearGradient>
</defs>
<g id="surface1">
<path style=" stroke:none;fill-rule:nonzero;fill:url(#linear0);" d="M 13.890625 3.761719 C 13.890625 4.3125 13.449219 4.753906 12.898438 4.753906 L 2.976562 4.753906 C 2.429688 4.753906 1.984375 4.3125 1.984375 3.761719 C 1.984375 3.214844 2.429688 2.769531 2.976562 2.769531 L 12.898438 2.769531 C 13.449219 2.769531 13.890625 3.214844 13.890625 3.761719 Z M 13.890625 3.761719 "/>
<path style=" stroke:none;fill-rule:nonzero;fill:url(#radial0);" d="M 8.046875 14.183594 L 8.929688 14.183594 L 8.929688 13.519531 L 8.046875 13.519531 Z M 8.046875 14.183594 "/>
<path style=" stroke:none;fill-rule:nonzero;fill:url(#radial1);" d="M 7.828125 14.183594 L 6.945312 14.183594 L 6.945312 14.84375 L 7.828125 14.84375 Z M 7.828125 14.183594 "/>
<path style=" stroke:none;fill-rule:nonzero;fill:url(#radial2);" d="M 7.828125 14.183594 L 6.945312 14.183594 L 6.945312 13.519531 L 7.828125 13.519531 Z M 7.828125 14.183594 "/>
<path style=" stroke:none;fill-rule:nonzero;fill:url(#radial3);" d="M 8.046875 14.183594 L 8.929688 14.183594 L 8.929688 14.84375 L 8.046875 14.84375 Z M 8.046875 14.183594 "/>
<path style=" stroke:none;fill-rule:nonzero;fill:url(#linear1);" d="M 7.828125 14.015625 L 8.046875 14.015625 L 8.046875 14.84375 L 7.828125 14.84375 Z M 7.828125 14.015625 "/>
<path style=" stroke:none;fill-rule:nonzero;fill:rgb(100%,100%,100%);fill-opacity:0.392157;" d="M 2.976562 2.769531 C 2.425781 2.769531 1.984375 3.214844 1.984375 3.761719 C 1.984375 3.808594 1.988281 3.851562 1.992188 3.890625 C 2.054688 3.402344 2.472656 3.027344 2.976562 3.027344 L 12.898438 3.027344 C 13.40625 3.027344 13.820312 3.402344 13.882812 3.890625 C 13.890625 3.851562 13.890625 3.808594 13.890625 3.761719 C 13.890625 3.214844 13.449219 2.769531 12.898438 2.769531 Z M 2.976562 2.769531 "/>
<path style=" stroke:none;fill-rule:nonzero;fill:rgb(0%,0%,0%);fill-opacity:0.235294;" d="M 2.976562 4.75 C 2.425781 4.75 1.984375 4.308594 1.984375 3.757812 C 1.984375 3.714844 1.988281 3.671875 1.992188 3.628906 C 2.054688 4.117188 2.472656 4.492188 2.976562 4.492188 L 12.898438 4.492188 C 13.40625 4.492188 13.820312 4.117188 13.882812 3.628906 C 13.890625 3.671875 13.890625 3.714844 13.890625 3.757812 C 13.890625 4.308594 13.449219 4.75 12.898438 4.75 Z M 2.976562 4.75 "/>
<path style="fill:none;stroke-width:3;stroke-linecap:square;stroke-linejoin:bevel;stroke:rgb(12.941177%,12.941177%,12.941177%);stroke-opacity:1;stroke-miterlimit:4;" d="M -94.636494 -444.457556 C -77.013177 -444.457556 -62.889526 -430.333905 -62.889526 -412.710588 L -62.889526 -95.240905 C -62.889526 -77.742576 -77.013177 -63.493937 -94.636494 -63.493937 C -112.134823 -63.493937 -126.383462 -77.742576 -126.383462 -95.240905 L -126.383462 -412.710588 C -126.383462 -430.333905 -112.134823 -444.457556 -94.636494 -444.457556 Z M -94.636494 -444.457556 " transform="matrix(0.000000000000000002,0.031253,-0.031253,0.000000000000000002,0,6.719392)"/>
<path style=" stroke:none;fill-rule:nonzero;fill:url(#linear2);" d="M 7.277344 2.121094 C 6.910156 2.121094 6.613281 2.414062 6.613281 2.78125 L 6.613281 10.097656 L 3.566406 8.792969 C 3.484375 8.757812 3.398438 8.738281 3.3125 8.738281 C 2.699219 8.734375 2.414062 9.496094 2.878906 9.894531 L 7.511719 13.867188 C 7.757812 14.078125 8.121094 14.078125 8.367188 13.867188 L 12.996094 9.894531 C 13.242188 9.683594 13.300781 9.324219 13.128906 9.050781 C 12.957031 8.773438 12.609375 8.664062 12.308594 8.792969 L 9.261719 10.097656 L 9.261719 2.78125 C 9.261719 2.414062 8.964844 2.121094 8.601562 2.121094 Z M 7.277344 2.121094 "/>
<path style=" stroke:none;fill-rule:nonzero;fill:rgb(100%,100%,100%);fill-opacity:0.784314;" d="M 7.277344 2.121094 C 6.910156 2.121094 6.613281 2.414062 6.613281 2.78125 L 6.613281 3.019531 C 6.613281 2.652344 6.910156 2.359375 7.277344 2.359375 L 8.601562 2.359375 C 8.964844 2.359375 9.261719 2.652344 9.261719 3.019531 L 9.261719 2.78125 C 9.261719 2.414062 8.964844 2.121094 8.601562 2.121094 Z M 12.566406 8.738281 C 12.480469 8.738281 12.394531 8.753906 12.308594 8.792969 L 9.261719 10.097656 L 9.261719 10.335938 L 12.308594 9.027344 C 12.609375 8.902344 12.957031 9.011719 13.128906 9.285156 C 13.171875 9.359375 13.203125 9.4375 13.214844 9.515625 C 13.246094 9.359375 13.21875 9.191406 13.128906 9.050781 C 13.003906 8.851562 12.789062 8.738281 12.566406 8.738281 Z M 3.3125 8.738281 C 2.863281 8.738281 2.589844 9.144531 2.660156 9.519531 C 2.710938 9.230469 2.957031 8.976562 3.3125 8.976562 C 3.398438 8.976562 3.484375 8.996094 3.566406 9.027344 L 6.613281 10.335938 L 6.613281 10.097656 L 3.566406 8.792969 C 3.484375 8.757812 3.398438 8.738281 3.3125 8.738281 Z M 3.3125 8.738281 "/>
<path style=" stroke:none;fill-rule:nonzero;fill:rgb(0%,0%,0%);fill-opacity:0.235294;" d="M 13.214844 9.273438 C 13.1875 9.414062 13.113281 9.546875 12.996094 9.644531 L 8.367188 13.617188 C 8.121094 13.828125 7.757812 13.828125 7.511719 13.617188 L 2.878906 9.644531 C 2.757812 9.542969 2.6875 9.410156 2.660156 9.277344 C 2.621094 9.492188 2.679688 9.726562 2.878906 9.894531 L 7.511719 13.867188 C 7.757812 14.078125 8.121094 14.078125 8.367188 13.867188 L 12.996094 9.894531 C 13.179688 9.738281 13.257812 9.5 13.214844 9.273438 Z M 13.214844 9.273438 "/>
<path style="fill:none;stroke-width:3;stroke-linecap:round;stroke-linejoin:round;stroke:rgb(12.941177%,12.941177%,12.941177%);stroke-opacity:1;stroke-miterlimit:4;" d="M 232.852764 -147.131481 C 221.103886 -147.131481 211.604793 -137.757376 211.604793 -126.008498 L 211.604793 108.094146 L 114.114103 66.348133 C 111.489353 65.22324 108.739616 64.5983 105.989878 64.5983 C 86.366752 64.473312 77.242624 88.845984 92.116203 101.594767 L 240.352048 228.707628 C 248.226296 235.456984 259.850186 235.456984 267.724434 228.707628 L 415.83529 101.594767 C 423.709538 94.845411 425.584359 83.346509 420.084884 74.597345 C 414.585409 65.723192 403.461471 62.223526 393.83739 66.348133 L 296.3467 108.094146 L 296.3467 -126.008498 C 296.3467 -137.757376 286.847607 -147.131481 275.223717 -147.131481 Z M 232.852764 -147.131481 " transform="matrix(0.031253,0,0,0.031253,0,6.719392)"/>
</g>
</svg>
